icons/src/scalable/default/devices/media-optical-audio-symbolic.svg

<svg xmlns="http://www.w3.org/2000/svg" viewBox="0 0 16 16">
  <defs id="defs3051">
    <style type="text/css" id="current-color-scheme">
      .ColorScheme-Text {
        color:#4d4d4d;
      }
      </style>
  </defs>
 <path 
     style="fill:#bebebe;fill-opacity:1;stroke:none" 
     class="ColorScheme-Text"
     d="M 8,0.5 C 3.845,0.5 0.5,3.845 0.5,8 c 0,4.155 3.345,7.5 7.5,7.5 4.155,0 7.5,-3.345 7.5,-7.5 C 15.5,3.845 12.155,0.5 8,0.5 Z m 4.074097,5.15625 c 0.04638,0 0.09643,0.00326 0.148315,0.00916 l 0.0019,0 c 0.703752,0.059505 1.201782,0.2984077 1.479492,0.7104492 0.308676,0.4579693 0.265645,1.0168021 0.212403,1.3092036 -0.0048,0.026381 -0.02669,0.046584 -0.0531,0.051272 -0.02651,0.00469 -0.05234,-0.00619 -0.06592,-0.029297 -0.05526,-0.094281 -0.148164,-0.2376225 -0.281983,-0.3808593 -0.324638,-0.3474551 -0.729171,-0.5310058 -1.168212,-0.5310058 -0.03652,-2e-7 -0.07432,0.00116 -0.111695,0.00367 l 0,2.5964353 c 0,0.4812731 -0.360795,0.876477 -0.858765,0.939331 -0.04516,0.0057 -0.09039,0.0092 -0.135498,0.0092 -0.4804,0 -0.884958,-0.325358 -0.93933,-0.7562251 -0.0293,-0.2320894 0.04363,-0.4629253 0.205078,-0.6500241 0.161433,-0.1870987 0.392434,-0.3080709 0.650025,-0.3405759 0.147817,-0.018675 0.29808,-0.00544 0.437621,0.036619 l 0,-2.6477048 C 11.59436,5.8337608 11.719302,5.65625 12.074097,5.65625 Z M 8,7.0625 C 8.5193741,7.0625 8.9375,7.4806259 8.9375,8 8.9375,8.5193741 8.5193741,8.9375 8,8.9375 7.4806259,8.9375 7.0625,8.5193741 7.0625,8 7.0625,7.4806259 7.4806259,7.0625 8,7.0625 Z"
     />
</svg>

<svg version="1.1" viewBox="0 0 16 16" xmlns="http://www.w3.org/2000/svg">
 <path d="m8 0.5c-4.155 0-7.5 3.345-7.5 7.5s3.345 7.5 7.5 7.5 7.5-3.345 7.5-7.5-3.345-7.5-7.5-7.5zm4.0741 5.1562c0.04638 0 0.09643 0.00326 0.14832 0.00916h0.0019c0.70375 0.059505 1.2018 0.29841 1.4795 0.71045 0.30868 0.45797 0.26564 1.0168 0.2124 1.3092-0.0048 0.026381-0.02669 0.046584-0.0531 0.051272-0.02651 0.00469-0.05234-0.00619-0.06592-0.029297-0.05526-0.094281-0.14816-0.23762-0.28198-0.38086-0.32464-0.34746-0.72917-0.53101-1.1682-0.53101-0.03652-2e-7 -0.07432 0.00116-0.1117 0.00367v2.5964c0 0.48127-0.3608 0.87648-0.85876 0.93933-0.04516 0.0057-0.09039 0.0092-0.1355 0.0092-0.4804 0-0.88496-0.32536-0.93933-0.75623-0.0293-0.23209 0.04363-0.46293 0.20508-0.65002 0.16143-0.1871 0.39243-0.30807 0.65002-0.34058 0.14782-0.018675 0.29808-0.00544 0.43762 0.036619v-2.6477c-6.8e-5 -0.15214 0.12487-0.32965 0.47967-0.32965zm-4.0741 1.4062c0.51937 0 0.9375 0.41813 0.9375 0.9375s-0.41813 0.9375-0.9375 0.9375-0.9375-0.41813-0.9375-0.9375 0.41813-0.9375 0.9375-0.9375z" fill="#bebebe"/>
</svg>
